X: 34233
T: Reel Traditionelle
R: reel
M: 4/4
K: Dmajor
fedf edBc|dBBA BAFD|DDFA =cBAG|FAde f2de|
fedf edBc|dBBA BAFD|DDFA =cBAG|1 FDEC DFde:|2 FDEC D2 AG||
FDDDF2GF|E=CEG B2AG|FAAA DAAA|BDcD dBAG|
FDDD F2GF|E=CEG B2AG|FAdf edce|1 dfec dBAG:|2 dfec d2de||

